src/assets/foundationPage/nonprofits.1.svg

<svg width="78" height="84" viewBox="0 0 78 84" fill="none" xmlns="http://www.w3.org/2000/svg">
<path fill-rule="evenodd" clip-rule="evenodd" d="M27.25 3H8.5C5.46243 3 3 5.46243 3 8.5V27.25C3 30.2876 5.46243 32.75 8.5 32.75H27.25C30.2876 32.75 32.75 30.2876 32.75 27.25V8.5C32.75 5.46243 30.2876 3 27.25 3ZM27.25 1H8.5C4.35786 1 1 4.35786 1 8.5V27.25C1 31.3921 4.35786 34.75 8.5 34.75H27.25C31.3921 34.75 34.75 31.3921 34.75 27.25V8.5C34.75 4.35786 31.3921 1 27.25 1ZM8.5 44.25H27.25C30.2876 44.25 32.75 46.7124 32.75 49.75V68.5C32.75 71.5376 30.2876 74 27.25 74H8.5C5.46243 74 3 71.5376 3 68.5V49.75C3 46.7124 5.46243 44.25 8.5 44.25ZM8.5 42.25H27.25C31.3921 42.25 34.75 45.6079 34.75 49.75V68.5C34.75 72.6421 31.3921 76 27.25 76H8.5C4.35786 76 1 72.6421 1 68.5V49.75C1 45.6079 4.35786 42.25 8.5 42.25ZM68.5 3H49.75C46.7124 3 44.25 5.46243 44.25 8.5V27.25C44.25 30.2876 46.7124 32.75 49.75 32.75H68.5C71.5376 32.75 74 30.2876 74 27.25V8.5C74 5.46243 71.5376 3 68.5 3ZM68.5 1H49.75C45.6079 1 42.25 4.35786 42.25 8.5V27.25C42.25 31.3921 45.6079 34.75 49.75 34.75H68.5C72.6421 34.75 76 31.3921 76 27.25V8.5C76 4.35786 72.6421 1 68.5 1Z" fill="#EB850E"/>
<path d="M8.5 3.5H27.25V2.5H8.5V3.5ZM3.5 8.5C3.5 5.73857 5.73858 3.5 8.5 3.5V2.5C5.18629 2.5 2.5 5.18629 2.5 8.5H3.5ZM3.5 27.25V8.5H2.5V27.25H3.5ZM8.5 32.25C5.73858 32.25 3.5 30.0114 3.5 27.25H2.5C2.5 30.5637 5.18629 33.25 8.5 33.25V32.25ZM27.25 32.25H8.5V33.25H27.25V32.25ZM32.25 27.25C32.25 30.0114 30.0114 32.25 27.25 32.25V33.25C30.5637 33.25 33.25 30.5637 33.25 27.25H32.25ZM32.25 8.5V27.25H33.25V8.5H32.25ZM27.25 3.5C30.0114 3.5 32.25 5.73858 32.25 8.5H33.25C33.25 5.18629 30.5637 2.5 27.25 2.5V3.5ZM8.5 1.5H27.25V0.5H8.5V1.5ZM1.5 8.5C1.5 4.63401 4.63401 1.5 8.5 1.5V0.5C4.08172 0.5 0.5 4.08172 0.5 8.5H1.5ZM1.5 27.25V8.5H0.5V27.25H1.5ZM8.5 34.25C4.63401 34.25 1.5 31.116 1.5 27.25H0.5C0.5 31.6683 4.08172 35.25 8.5 35.25V34.25ZM27.25 34.25H8.5V35.25H27.25V34.25ZM34.25 27.25C34.25 31.116 31.116 34.25 27.25 34.25V35.25C31.6683 35.25 35.25 31.6683 35.25 27.25H34.25ZM34.25 8.5V27.25H35.25V8.5H34.25ZM27.25 1.5C31.116 1.5 34.25 4.63401 34.25 8.5H35.25C35.25 4.08172 31.6683 0.5 27.25 0.5V1.5ZM27.25 43.75H8.5V44.75H27.25V43.75ZM33.25 49.75C33.25 46.4363 30.5637 43.75 27.25 43.75V44.75C30.0114 44.75 32.25 46.9886 32.25 49.75H33.25ZM33.25 68.5V49.75H32.25V68.5H33.25ZM27.25 74.5C30.5637 74.5 33.25 71.8137 33.25 68.5H32.25C32.25 71.2614 30.0114 73.5 27.25 73.5V74.5ZM8.5 74.5H27.25V73.5H8.5V74.5ZM2.5 68.5C2.5 71.8137 5.18629 74.5 8.5 74.5V73.5C5.73858 73.5 3.5 71.2614 3.5 68.5H2.5ZM2.5 49.75V68.5H3.5V49.75H2.5ZM8.5 43.75C5.18629 43.75 2.5 46.4363 2.5 49.75H3.5C3.5 46.9886 5.73858 44.75 8.5 44.75V43.75ZM27.25 41.75H8.5V42.75H27.25V41.75ZM35.25 49.75C35.25 45.3317 31.6683 41.75 27.25 41.75V42.75C31.116 42.75 34.25 45.884 34.25 49.75H35.25ZM35.25 68.5V49.75H34.25V68.5H35.25ZM27.25 76.5C31.6683 76.5 35.25 72.9183 35.25 68.5H34.25C34.25 72.366 31.116 75.5 27.25 75.5V76.5ZM8.5 76.5H27.25V75.5H8.5V76.5ZM0.5 68.5C0.5 72.9183 4.08172 76.5 8.5 76.5V75.5C4.63401 75.5 1.5 72.366 1.5 68.5H0.5ZM0.5 49.75V68.5H1.5V49.75H0.5ZM8.5 41.75C4.08172 41.75 0.5 45.3317 0.5 49.75H1.5C1.5 45.884 4.63401 42.75 8.5 42.75V41.75ZM49.75 3.5H68.5V2.5H49.75V3.5ZM44.75 8.5C44.75 5.73858 46.9886 3.5 49.75 3.5V2.5C46.4363 2.5 43.75 5.18629 43.75 8.5H44.75ZM44.75 27.25V8.5H43.75V27.25H44.75ZM49.75 32.25C46.9886 32.25 44.75 30.0114 44.75 27.25H43.75C43.75 30.5637 46.4363 33.25 49.75 33.25V32.25ZM68.5 32.25H49.75V33.25H68.5V32.25ZM73.5 27.25C73.5 30.0114 71.2614 32.25 68.5 32.25V33.25C71.8137 33.25 74.5 30.5637 74.5 27.25H73.5ZM73.5 8.5V27.25H74.5V8.5H73.5ZM68.5 3.5C71.2614 3.5 73.5 5.73858 73.5 8.5H74.5C74.5 5.18629 71.8137 2.5 68.5 2.5V3.5ZM49.75 1.5H68.5V0.5H49.75V1.5ZM42.75 8.5C42.75 4.63401 45.884 1.5 49.75 1.5V0.5C45.3317 0.5 41.75 4.08172 41.75 8.5H42.75ZM42.75 27.25V8.5H41.75V27.25H42.75ZM49.75 34.25C45.884 34.25 42.75 31.116 42.75 27.25H41.75C41.75 31.6683 45.3317 35.25 49.75 35.25V34.25ZM68.5 34.25H49.75V35.25H68.5V34.25ZM75.5 27.25C75.5 31.116 72.366 34.25 68.5 34.25V35.25C72.9183 35.25 76.5 31.6683 76.5 27.25H75.5ZM75.5 8.5V27.25H76.5V8.5H75.5ZM68.5 1.5C72.366 1.5 75.5 4.63401 75.5 8.5H76.5C76.5 4.08172 72.9183 0.5 68.5 0.5V1.5Z" fill="#EB850E"/>
<path d="M59.4768 65.1718L55.3544 61.1467C53.0848 58.9511 49.4719 58.9511 47.2022 61.1467C44.9326 63.3879 44.9326 67.0014 47.2022 69.2427L56.2345 78.1621C58.0409 79.946 60.9591 79.946 62.7655 78.1621L71.7978 69.2427C74.0674 67.0014 74.0674 63.3879 71.7978 61.1467C69.5281 58.9511 65.9152 58.9511 63.6456 61.1467L59.4768 65.1718Z" fill="#EB850E" stroke="white" stroke-width="8"/>
<path fill-rule="evenodd" clip-rule="evenodd" d="M42.5 56.6763V45.3821C42.5 43.8227 43.8431 42.5586 45.5 42.5586H72.5C74.1569 42.5586 75.5 43.8227 75.5 45.3821V56.6763C75.5 58.2357 74.1569 59.4998 72.5 59.4998H45.5C43.8431 59.4998 42.5 58.2357 42.5 56.6763ZM72.5 45.3823H69.5V49.6176H66.5V45.3823H63.5V52.4412H60.5V45.3823H57.5V49.6176H54.5V45.3823H51.5V52.4412H48.5V45.3823H45.5V56.6765H72.5V45.3823Z" fill="#EB850E"/>
</svg>

<svg width="78" height="84" fill="none" xmlns="http://www.w3.org/2000/svg"><path fill-rule="evenodd" clip-rule="evenodd" d="M27.25 3H8.5A5.5 5.5 0 003 8.5v18.75a5.5 5.5 0 005.5 5.5h18.75a5.5 5.5 0 005.5-5.5V8.5a5.5 5.5 0 00-5.5-5.5zm0-2H8.5A7.5 7.5 0 001 8.5v18.75a7.5 7.5 0 007.5 7.5h18.75a7.5 7.5 0 007.5-7.5V8.5a7.5 7.5 0 00-7.5-7.5zM8.5 44.25h18.75a5.5 5.5 0 015.5 5.5V68.5a5.5 5.5 0 01-5.5 5.5H8.5A5.5 5.5 0 013 68.5V49.75a5.5 5.5 0 015.5-5.5zm0-2h18.75a7.5 7.5 0 017.5 7.5V68.5a7.5 7.5 0 01-7.5 7.5H8.5A7.5 7.5 0 011 68.5V49.75a7.5 7.5 0 017.5-7.5zM68.5 3H49.75a5.5 5.5 0 00-5.5 5.5v18.75a5.5 5.5 0 005.5 5.5H68.5a5.5 5.5 0 005.5-5.5V8.5A5.5 5.5 0 0068.5 3zm0-2H49.75a7.5 7.5 0 00-7.5 7.5v18.75a7.5 7.5 0 007.5 7.5H68.5a7.5 7.5 0 007.5-7.5V8.5A7.5 7.5 0 0068.5 1z" fill="#EB850E"/><path d="M8.5 3.5h18.75v-1H8.5v1zm-5 5a5 5 0 015-5v-1a6 6 0 00-6 6h1zm0 18.75V8.5h-1v18.75h1zm5 5a5 5 0 01-5-5h-1a6 6 0 006 6v-1zm18.75 0H8.5v1h18.75v-1zm5-5a5 5 0 01-5 5v1a6 6 0 006-6h-1zm0-18.75v18.75h1V8.5h-1zm-5-5a5 5 0 015 5h1a6 6 0 00-6-6v1zM8.5 1.5h18.75v-1H8.5v1zm-7 7a7 7 0 017-7v-1a8 8 0 00-8 8h1zm0 18.75V8.5h-1v18.75h1zm7 7a7 7 0 01-7-7h-1a8 8 0 008 8v-1zm18.75 0H8.5v1h18.75v-1zm7-7a7 7 0 01-7 7v1a8 8 0 008-8h-1zm0-18.75v18.75h1V8.5h-1zm-7-7a7 7 0 017 7h1a8 8 0 00-8-8v1zm0 42.25H8.5v1h18.75v-1zm6 6a6 6 0 00-6-6v1a5 5 0 015 5h1zm0 18.75V49.75h-1V68.5h1zm-6 6a6 6 0 006-6h-1a5 5 0 01-5 5v1zm-18.75 0h18.75v-1H8.5v1zm-6-6a6 6 0 006 6v-1a5 5 0 01-5-5h-1zm0-18.75V68.5h1V49.75h-1zm6-6a6 6 0 00-6 6h1a5 5 0 015-5v-1zm18.75-2H8.5v1h18.75v-1zm8 8a8 8 0 00-8-8v1a7 7 0 017 7h1zm0 18.75V49.75h-1V68.5h1zm-8 8a8 8 0 008-8h-1a7 7 0 01-7 7v1zm-18.75 0h18.75v-1H8.5v1zm-8-8a8 8 0 008 8v-1a7 7 0 01-7-7h-1zm0-18.75V68.5h1V49.75h-1zm8-8a8 8 0 00-8 8h1a7 7 0 017-7v-1zM49.75 3.5H68.5v-1H49.75v1zm-5 5a5 5 0 015-5v-1a6 6 0 00-6 6h1zm0 18.75V8.5h-1v18.75h1zm5 5a5 5 0 01-5-5h-1a6 6 0 006 6v-1zm18.75 0H49.75v1H68.5v-1zm5-5a5 5 0 01-5 5v1a6 6 0 006-6h-1zm0-18.75v18.75h1V8.5h-1zm-5-5a5 5 0 015 5h1a6 6 0 00-6-6v1zm-18.75-2H68.5v-1H49.75v1zm-7 7a7 7 0 017-7v-1a8 8 0 00-8 8h1zm0 18.75V8.5h-1v18.75h1zm7 7a7 7 0 01-7-7h-1a8 8 0 008 8v-1zm18.75 0H49.75v1H68.5v-1zm7-7a7 7 0 01-7 7v1a8 8 0 008-8h-1zm0-18.75v18.75h1V8.5h-1zm-7-7a7 7 0 017 7h1a8 8 0 00-8-8v1z" fill="#EB850E"/><path d="M59.477 65.172l-4.123-4.025a5.868 5.868 0 00-8.152 0 5.664 5.664 0 000 8.096l9.032 8.92a4.654 4.654 0 006.532 0l9.032-8.92a5.664 5.664 0 000-8.096 5.868 5.868 0 00-8.152 0l-4.17 4.025z" fill="#EB850E" stroke="#fff" stroke-width="8"/><path fill-rule="evenodd" clip-rule="evenodd" d="M42.5 56.676V45.382c0-1.56 1.343-2.823 3-2.823h27c1.657 0 3 1.264 3 2.823v11.294c0 1.56-1.343 2.824-3 2.824h-27c-1.657 0-3-1.264-3-2.824zm30-11.294h-3v4.236h-3v-4.236h-3v7.06h-3v-7.06h-3v4.236h-3v-4.236h-3v7.06h-3v-7.06h-3v11.294h27V45.382z" fill="#EB850E"/></svg>
